src/topics/icons/youtrack.svg

<svg height="256" preserveAspectRatio="xMidYMid" viewBox="0 0 256 256" width="256" xmlns="http://www.w3.org/2000/svg" xmlns:xlink="http://www.w3.org/1999/xlink"><linearGradient id="a" x1="65.797046%" x2="2.104705%" y1="66.686613%" y2="5.573974%"><stop offset="0" stop-color="#905cfb"/><stop offset=".07" stop-color="#a554e6"/><stop offset=".25" stop-color="#d641b5"/><stop offset=".39" stop-color="#f43597"/><stop offset=".47" stop-color="#ff318c"/></linearGradient><path d="m83.6107669 98.1951254c42.3454921-38.6289059 89.3886561-81.6916266 90.7514941-83.0544642 2.12053-2.1592568 4.392728-4.1641377 6.799217-5.99930864 17.868337-13.16935553 42.523938-12.00034231 59.066103 2.80054244 16.542165 14.8008848 20.435067 39.1752677 9.326015 58.392406-2.010243 3.5266553-4.500399 6.7571277-7.399147 9.5988938-9.398917 9.3989169-45.394769 47.5945152-45.394769 47.5945152s47.194562 45.394769 47.994469 45.9947c11.696054 9.368153 14.68416 25.930801 6.999194 38.795529-4.60451 7.594231-12.254308 12.839806-20.99758 14.398341-2.598177.458502-36.914616-32.570846-74.811811-59.294274-23.957774 26.878458-71.6215991 80.33185-71.7712979 80.33185-20.2376679 14.158368-44.994815 6.359267-56.1935245.199977-15.5393748-9.073012-25.82040123-25.01262-27.6773824-42.910758-1.85698116-17.898137 4.93272836-35.608881 18.2784655-47.678803 6.5992395-5.999309 34.5960133-31.396382 64.9925105-59.1931788z" fill="#0cb0f2"/><path d="m167.802009 111.987903c-1.369496-9.376341-6.345739-17.8474608-13.868777-23.6089886l-73.7129561-74.5947854c-12.4777096-12.49535987-30.9086598-16.93789987-47.7090343-11.4996401-16.8003746 5.43825977-29.13191537 19.8385788-31.92054114 37.2756319s4.43677441 34.9650216 18.70315214 45.3716407l88.9846444 62.1289185c12.027593 9.355257 28.547797 10.419036 41.675903 2.68362 13.128105-7.735416 20.202845-22.70194 17.847609-37.756397z" fill="url(#a)"/><path d="m47.854529 48.763194h159.382277v159.382277h-159.382277z"/><path d="m63.9919842 175.87056h58.3737588v10.559076h-58.3737588zm21.3173795-63.952138-26.8957592-42.2363037h17.9305062l16.735139 28.0911263 16.9343673-28.0911263h17.492205l-26.89576 42.0370757v27.891898h-15.3405438v-27.69267zm65.7451893-28.0911267h-21.31738v-14.145177h57.776076v14.145177h-21.118152v55.5845687h-15.340544z" fill="#fff"/></svg>

<?xml version="1.0" encoding="UTF-8" standalone="no"?>
<svg width="256px" height="256px" viewBox="0 0 256 256" version="1.1" xmlns="http://www.w3.org/2000/svg" xmlns:xlink="http://www.w3.org/1999/xlink" preserveAspectRatio="xMidYMid">
    <defs>
        <linearGradient x1="65.7970456%" y1="66.6866128%" x2="2.10470459%" y2="5.57397386%" id="linearGradient-1">
            <stop stop-color="#905CFB" offset="0%"></stop>
            <stop stop-color="#A554E6" offset="7%"></stop>
            <stop stop-color="#D641B5" offset="25%"></stop>
            <stop stop-color="#F43597" offset="39%"></stop>
            <stop stop-color="#FF318C" offset="47%"></stop>
        </linearGradient>
    </defs>
	<g>
		<path d="M83.6107669,98.1951254 C125.956259,59.5662195 172.999423,16.5034988 174.362261,15.1406612 C176.482791,12.9814044 178.754989,10.9765235 181.161478,9.14135256 C199.029815,-4.02800297 223.685416,-2.85898975 240.227581,11.941895 C256.769746,26.7427798 260.662648,51.1171627 249.553596,70.334301 C247.543353,73.8609563 245.053197,77.0914287 242.154449,79.9331948 C232.755532,89.3321117 196.75968,127.52771 196.75968,127.52771 C196.75968,127.52771 243.954242,172.922479 244.754149,173.52241 C256.450203,182.890563 259.438309,199.453211 251.753343,212.317939 C247.148833,219.91217 239.499035,225.157745 230.755763,226.71628 C228.157586,227.174782 193.841147,194.145434 155.943952,167.422006 C131.986178,194.300464 84.3223529,247.753856 84.1726541,247.753856 C63.9349862,261.912224 39.1778391,254.113123 27.9791296,247.953833 C12.4397548,238.880821 2.15872837,222.941213 0.301747202,205.043075 C-1.55523396,187.144938 5.23447556,169.434194 18.5802127,157.364272 C25.1794522,151.364963 53.176226,125.96789 83.5727232,98.1710932 L83.6107669,98.1951254 Z" fill="#0CB0F2"></path>
		<path d="M167.802009,111.987903 C166.432513,102.611562 161.45627,94.1404422 153.933232,88.3789144 L80.2202759,13.784129 C67.7425663,1.28876913 49.3116161,-3.15377087 32.5112416,2.2844889 C15.710867,7.72274867 3.37932623,22.1230677 0.590700461,39.5601208 C-2.19792531,56.9971739 5.02747487,74.5251424 19.2938526,84.9317615 L108.278497,147.06068 C120.30609,156.415937 136.826294,157.479716 149.9544,149.7443 C163.082505,142.008884 170.157245,127.04236 167.802009,111.987903 L167.802009,111.987903 Z" fill="url(#linearGradient-1)"></path>
		<rect fill="#000000" x="47.8545287" y="48.7631944" width="159.382277" height="159.382277"></rect>
		<path d="M63.9919842,175.87056 L122.365743,175.87056 L122.365743,186.429636 L63.9919842,186.429636 L63.9919842,175.87056 Z M85.3093637,111.918422 L58.4136045,69.6821183 L76.3441107,69.6821183 L93.0792497,97.7732446 L110.013617,69.6821183 L127.505822,69.6821183 L100.610062,111.719194 L100.610062,139.611092 L85.2695182,139.611092 L85.2695182,111.918422 L85.3093637,111.918422 Z M151.054553,83.8272953 L129.737173,83.8272953 L129.737173,69.6821183 L187.513249,69.6821183 L187.513249,83.8272953 L166.395097,83.8272953 L166.395097,139.411864 L151.054553,139.411864 L151.054553,83.8272953 Z" fill="#FFFFFF"></path>
	</g>
</svg>
